svgs/light/scribble.svg

<svg xmlns="http://www.w3.org/2000/svg" viewBox="0 0 512 512"><!--! Font Awesome Pro 6.3.0 by @fontawesome - https://fontawesome.com License - https://fontawesome.com/license (Commercial License) Copyright 2023 Fonticons, Inc. --><path d="M196.6 19.5C210.2 6.96 228 0 246.5 0H247.4C287.5 0 320 32.49 320 72.57C320 91.82 312.4 110.3 298.7 123.9L75.88 346.7C68.27 354.4 64 364.7 64 375.4C64 397.8 82.16 416 104.6 416C115.3 416 125.6 411.7 133.3 404.1L388.1 149.3C401.7 135.6 420.2 128 439.4 128C479.5 128 512 160.5 512 200.6C512 219.8 504.4 238.3 490.7 251.9L370.5 372.1C358.7 383.1 352 400.1 352 416.9C352 451.7 380.2 480 414.1 480C423.7 480 432.3 477.1 440.1 474.1L488.8 449.7C496.7 445.7 506.4 448.9 510.3 456.8C514.3 464.7 511.1 474.4 503.2 478.3L454.4 502.7C442.2 508.8 428.7 512 414.1 512C362.5 512 320 469.3 320 416.9C320 391.6 330 367.4 347.9 349.5L468.1 229.3C475.7 221.6 480 211.3 480 200.6C480 178.2 461.8 160 439.4 160C428.7 160 418.4 164.3 410.7 171.9L155.9 426.7C142.3 440.4 123.8 448 104.6 448C64.49 448 32 415.5 32 375.4C32 356.2 39.65 337.7 53.26 324.1L276.1 101.3C283.7 93.65 288 83.33 288 72.57C288 50.16 269.8 32 247.4 32H246.5C236.1 32 225.1 35.93 218.3 43.01L26.85 219.8C20.36 225.8 10.24 225.3 4.243 218.9C-1.75 212.4-1.346 202.2 5.148 196.2L196.6 19.5z"/></svg>

<svg xmlns="http://www.w3.org/2000/svg" viewBox="0 0 512 512"><!--! Font Awesome Pro 6.4.0 by @fontawesome - https://fontawesome.com License - https://fontawesome.com/license (Commercial License) Copyright 2023 Fonticons, Inc. --><path d="M196.6 19.5C210.2 7 228 0 246.5 0h.9C287.5 0 320 32.5 320 72.6c0 19.2-7.6 37.7-21.3 51.3L75.9 346.7C68.3 354.4 64 364.7 64 375.4c0 22.4 18.2 40.6 40.6 40.6c10.8 0 21.1-4.3 28.7-11.9L388.1 149.3c13.6-13.6 32.1-21.3 51.3-21.3c40.1 0 72.6 32.5 72.6 72.6c0 19.2-7.6 37.7-21.3 51.3L370.5 372.1c-11.8 11.8-18.5 28-18.5 44.8c0 34.8 28.2 63.1 63 63.1c8.7 0 17.3-2 25.1-5.9l48.8-24.4c7.9-4 17.5-.7 21.5 7.2s.7 17.5-7.2 21.5l-48.8 24.4c-12.2 6.1-25.8 9.3-39.4 9.3c-52.5 0-95-42.7-95-95.1c0-25.2 10-49.5 27.9-67.4L468.1 229.3c7.6-7.6 11.9-17.9 11.9-28.7c0-22.4-18.2-40.6-40.6-40.6c-10.8 0-21.1 4.3-28.7 11.9L155.9 426.7c-13.6 13.6-32.1 21.3-51.3 21.3C64.5 448 32 415.5 32 375.4c0-19.2 7.6-37.7 21.3-51.3L276.1 101.3c7.6-7.6 11.9-17.9 11.9-28.7C288 50.2 269.8 32 247.4 32h-.9c-10.4 0-20.5 3.9-28.2 11L26.9 219.8c-6.5 6-16.6 5.6-22.6-.9s-5.6-16.6 .9-22.6L196.6 19.5z"/></svg>
